src/public/favicon.svg

<svg width="32" height="32" viewBox="0 0 32 32" fill="none" xmlns="http://www.w3.org/2000/svg">
<circle cx="16" cy="16" r="16" fill="#242424"/>
<path d="M10.6 11.7143H9.4C9.0675 11.7143 8.8 12.0009 8.8 12.3571V15.1429H8.2C8.09 15.1429 8 15.2393 8 15.3571V16.6429C8 16.7607 8.09 16.8571 8.2 16.8571H8.8V19.6429C8.8 19.9991 9.0675 20.2857 9.4 20.2857H10.6C10.9325 20.2857 11.2 19.9991 11.2 19.6429V12.3571C11.2 12.0009 10.9325 11.7143 10.6 11.7143ZM23.8 15.1429H23.2V12.3571C23.2 12.0009 22.9325 11.7143 22.6 11.7143H21.4C21.0675 11.7143 20.8 12.0009 20.8 12.3571V19.6429C20.8 19.9991 21.0675 20.2857 21.4 20.2857H22.6C22.9325 20.2857 23.2 19.9991 23.2 19.6429V16.8571H23.8C23.91 16.8571 24 16.7607 24 16.6429V15.3571C24 15.2393 23.91 15.1429 23.8 15.1429ZM19.4 10H18.2C17.8675 10 17.6 10.2866 17.6 10.6429V15.1429H14.4V10.6429C14.4 10.2866 14.1325 10 13.8 10H12.6C12.2675 10 12 10.2866 12 10.6429V21.3571C12 21.7134 12.2675 22 12.6 22H13.8C14.1325 22 14.4 21.7134 14.4 21.3571V16.8571H17.6V21.3571C17.6 21.7134 17.8675 22 18.2 22H19.4C19.7325 22 20 21.7134 20 21.3571V10.6429C20 10.2866 19.7325 10 19.4 10Z" fill="#F4F4F4"/>
</svg>

<svg xmlns="http://www.w3.org/2000/svg" width="32" height="32" fill="none"><circle cx="16" cy="16" r="16" fill="#242424"/><path fill="#F4F4F4" d="M10.6 11.714H9.4c-.332 0-.6.287-.6.643v2.786h-.6c-.11 0-.2.096-.2.214v1.286c0 .118.09.214.2.214h.6v2.786c0 .356.268.643.6.643h1.2c.332 0 .6-.287.6-.643v-7.286c0-.356-.268-.643-.6-.643Zm13.2 3.429h-.6v-2.786c0-.356-.267-.643-.6-.643h-1.2c-.332 0-.6.287-.6.643v7.286c0 .356.267.643.6.643h1.2c.332 0 .6-.287.6-.643v-2.786h.6c.11 0 .2-.096.2-.214v-1.286c0-.118-.09-.214-.2-.214ZM19.4 10h-1.2c-.332 0-.6.287-.6.643v4.5h-3.2v-4.5c0-.356-.268-.643-.6-.643h-1.2c-.332 0-.6.287-.6.643v10.714c0 .356.268.643.6.643h1.2c.332 0 .6-.287.6-.643v-4.5h3.2v4.5c0 .356.267.643.6.643h1.2c.333 0 .6-.287.6-.643V10.643c0-.356-.267-.643-.6-.643Z"/></svg>
